X:1952
L:1/8
M:6/8
K:D
|: d | AFF FEF | AFF F2 d | AFF FEF | DB,B, B,2 d | AFF FEF | AFF FED | EFG F2 E | DB,B, B,2 d :: 
 c | dcd ede | fdB BAF | d3 ede | fdB B2 e | fdf ecA | dBc dcB | AFF FEF | DB,B, B,2 c :|

